icons/svg/popcorn.svg

﻿<?xml version="1.0" encoding="utf-8"?>
<!DOCTYPE svg PUBLIC "-//W3C//DTD SVG 1.1//EN" "http://www.w3.org/Graphics/SVG/1.1/DTD/svg11.dtd">
<svg xmlns="http://www.w3.org/2000/svg" xmlns:xlink="http://www.w3.org/1999/xlink" version="1.1" baseProfile="full" width="24" height="24" viewBox="0 0 24.00 24.00" enable-background="new 0 0 24.00 24.00" xml:space="preserve">
	<path fill="#000000" fill-opacity="1" stroke-width="0.2" stroke-linejoin="round" d="M 7,22L 4.75002,22C 4.75002,22 4.00002,22 3.81359,20.6484L 2.04278,3.81001L 2.00002,3.50003C 2.00002,2.67161 2.89545,2.00004 4.00002,2.00004C 5.10246,2.00004 5.99655,2.66902 6,3.49524C 6.00344,2.66902 6.89755,2.00003 7.99999,2.00003C 9.10455,2.00003 9.99999,2.6716 9.99999,3.50002C 9.99999,2.6716 10.8954,2.00003 12,2.00003C 13.0913,2.00003 13.9785,2.65557 13.999,3.50841L 14,3.50002C 14,2.6716 14.8954,2.00003 16,2.00003C 17.1024,2.00003 17.9965,2.66902 18,3.49524C 18.0034,2.66902 18.8975,2.00004 20,2.00004C 21.1045,2.00004 22,2.67161 22,3.50004L 21.9572,3.81001L 20.1864,20.6484C 20,22 19.25,22 19.25,22L 17,22L 16.5,22L 13.75,22L 10.25,22L 7.50001,22L 7,22 Z M 17.8518,4.93235C 17.5534,4.38538 16.8367,4.00003 16,4.00003C 15.1931,4.00003 14.3643,4.35844 13.9763,4.87459L 13.7781,20L 16.6584,20L 17.8518,4.93235 Z M 10.0237,4.87461C 9.63568,4.35846 8.80693,4.00003 7.99998,4.00003C 7.16328,4.00003 6.44658,4.38538 6.14817,4.93236L 7.3416,20L 10.2219,20L 10.0237,4.87461 Z "/>
</svg>

<svg xmlns="http://www.w3.org/2000/svg" version="1.1" baseProfile="full" width="24" height="24" viewBox="0 0 24.00 24.00" xml:space="preserve"><path fill="#000" fill-opacity="1" stroke-width=".2" stroke-linejoin="round" d="M7 22H4.75s-.75 0-.936-1.352L2.044 3.81 2 3.5C2 2.672 2.895 2 4 2c1.102 0 1.997.67 2 1.495C6.003 2.67 6.898 2 8 2c1.105 0 2 .672 2 1.5 0-.828.895-1.5 2-1.5 1.09 0 1.98.656 2 1.508V3.5c0-.828.895-1.5 2-1.5 1.102 0 1.997.67 2 1.495C18.003 2.67 18.898 2 20 2c1.105 0 2 .672 2 1.5l-.043.31-1.77 16.838C20 22 19.25 22 19.25 22H7zM17.852 4.932C17.552 4.385 16.837 4 16 4c-.807 0-1.636.358-2.024.875L13.778 20h2.88l1.194-15.068zm-7.828-.057C9.636 4.358 8.807 4 8 4c-.837 0-1.553.385-1.852.932L7.342 20h2.88l-.198-15.125z"/></svg>
